web/luts/Kodak_2383_33pt_1.test_photo_04.cube
TITLE "Generated by Resolve"
LUT_3D_SIZE 33
0 0 0
0.00427253 0.00112917 0.00114443
0.0093843 0.0021973 0.00224308
0.0153811 0.0030518 0.00309758
0.0225071 0.00396735 0.00402838
0.0304875 0.00494392 0.00488289
0.0394598 0.00573739 0.00550851
0.0497444 0.0065156 0.0059205
0.0616617 0.00709544 0.00613413
0.0755932 0.00735485 0.00610361
0.0920577 0.00724804 0.0052491
0.112566 0.00646983 0.00384527
0.137774 0.00453193 0.000991836
0.169192 0.00128176 0
0.209186 0 0
0.257465 0 0
0.312123 0 0
0.372671 0 0
0.435721 0 0
0.49575 0 0
0.551583 0 0
0.601999 0 0
0.647288 0 0
0.687648 0 0
0.723629 0 0
0.755795 0 0
0.784329 0 0
0.810513 0 0
0.835126 0 0
0.858 0 0
0.879652 0 0
0.900435 0 0
0.920424 0 0
0.000900282 0.00370794 0.0016022
0.00616464 0.00537118 0.00250248
0.0116274 0.00668345 0.00297551
0.0185092 0.00798047 0.00424201
0.0262303 0.00917067 0.00523384
0.0347601 0.0103761 0.00624094
0.0444038 0.0115816 0.00724804
0.0553292 0.0126345 0.0078584
0.0679332 0.013489 0.00828565
0.0830396 0.0140993 0.00852979
0.100893 0.0142672 0.00784314
0.122759 0.0134127 0.00590524
0.150286 0.0116579 0.00289921
0.184466 0.00851453 0
0.227359 0.00317388 0
0.278218 0 0
0.335622 0 0
0.397787 0 0
0.460273 0 0
0.519936 0 0
0.574716 0 0
0.623941 0 0
0.668284 0 0
0.707759 0 0
0.742382 0 0
0.774121 0 0
0.80322 0 0
0.829206 0 0
0.85388 0 0
0.877195 0 0
0.899275 0 0
0.920913 0 0
0.942931 0.0108492 0
0.00155642 0.00677501 0.00311284
0.00648508 0.00959792 0.0043946
0.0140078 0.0120394 0.00543221
0.020798 0.0136263 0.0056611
0.0290074 0.0152743 0.00648508
0.0382696 0.0168307 0.00756847
0.048661 0.0182498 0.00843824
0.0606699 0.0197147 0.00933852
0.0743572 0.0210269 0.0100557
0.0905928 0.0217136 0.0102235
0.109987 0.0220035 0.00955215
0.134188 0.0215152 0.0078584
0.164294 0.0196231 0.0043946
0.201785 0.0162051 0
0.247761 0.0109255 0
0.301106 0.00401312 0
0.360891 0 0
0.424674 0 0
0.48658 0 0
0.544594 0 0
0.598672 0 0
0.647059 0 0
0.69015 0 0
0.728573 0 0
0.762737 0 0
0.79379 0 0
0.8224 0 0
0.849104 0 0
0.873869 0 0
0.89781 0.00512703 0
0.921614 0.0160525 0
0.944869 0.0277867 0
0.966873 0.040177 0.0126497
0.00233463 0.0109712 0.00476081
0.00639353 0.013489 0.00569161
0.0150149 0.0180209 0.00782788
0.0242771 0.0203555 0.00891127
0.0321355 0.0221866 0.00889601
0.0412146 0.024155 0.00946059
0.0521859 0.0261692 0.0103761
0.0647898 0.027924 0.0111696
0.0795758 0.0295109 0.0117952
0.0970474 0.0307012 0.0121309
0.118471 0.0311589 0.0114748
0.14464 0.0307012 0.00973526
0.17763 0.0290532 0.00627146
0.218387 0.0254063 0.000534066
0.267796 0.0199283 0
0.323995 0.0133364 0
0.385977 0.00564584 0
0.45034 0 0
0.512108 0 0
0.569955 0 0
0.622431 0 0
0.669505 0 0
0.71191 0 0
0.749767 0 0
0.783475 0 0
0.814649 0 0
0.843229 0.00308232 0
0.870069 0.011429 0
0.896422 0.021561 0
0.921614 0.0330663 0
0.945617 0.0453346 0.00460822
0.969299 0.058732 0.0194095
0.992462 0.07393 0.0355383
0.0031281 0.0159457 0.00634775
0.00700389 0.0189364 0.00724804
0.0145418 0.0239261 0.00985733
0.0256809 0.027863 0.011429
0.0363012 0.0303807 0.0125734
0.045716 0.0327306 0.0128481
0.0560159 0.0350347 0.0130007
0.0688487 0.0373693 0.0137484
0.0840009 0.0393225 0.0142061
0.102434 0.0408637 0.0143435
0.125246 0.0418402 0.0138857
0.153704 0.0417182 0.0121309
0.188785 0.0398718 0.00825513
0.233051 0.0363928 0.00259403
0.285832 0.03122 0
0.345388 0.0244602 0
0.409262 0.0172122 0
0.474418 0.0101167 0
0.535943 0.00448615 0
0.593393 0.000579843 0
0.645716 0 0
0.691752 0 0
0.733318 0.00149538 0
0.770993 0.00598154 0
0.805417 0.0120699 0
0.836469 0.0191348 0
0.865583 0.0283513 0
0.893584 0.0391394 0
0.919814 0.0507973 0
0.945098 0.0640574 0.00988785
0.969726 0.0785687 0.024567
0.993835 0.0943465 0.0405737
1 0.111543 0.0573892
0.00402838 0.0221561 0.00810254
0.00779736 0.0258488 0.00895705
0.0138705 0.0307164 0.0113375
0.025864 0.0360571 0.0140536
0.0379644 0.0394903 0.0152132
0.0503395 0.0425727 0.0166934
0.0618448 0.0453498 0.0170443
0.0738384 0.0478981 0.016907
0.0890974 0.0504311 0.0171817
0.107881 0.0526741 0.0175326
0.131518 0.0539406 0.0167544
0.161166 0.0542458 0.0148318
0.198886 0.052842 0.0111086
0.245686 0.049485 0.00520333
0.300679 0.04448 0
0.363592 0.0382391 0
0.429755 0.03122 0
0.495659 0.0250095 0
0.558267 0.020676 0
0.6159 0.0182193 0
0.667521 0.0174411 0
0.714061 0.0194705 0
0.755886 0.0236667 0
0.79292 0.0295262 0
0.826963 0.0372625 0
0.858778 0.0466773 0
0.888212 0.0575113 0
0.916152 0.0699016 0.000808728
0.943099 0.0843061 0.0143587
0.968231 0.0993668 0.0284276
0.992874 0.115984 0.0439612
1 0.134585 0.0609293
1 0.154482 0.0790875
0.00482185 0.029633 0.00961318
0.00848402 0.0338293 0.0105592
0.0144198 0.0394446 0.0128939
0.0251316 0.0449989 0.0160067
0.0393072 0.0498512 0.0183719
0.0523232 0.0534218 0.0196841
0.0670329 0.0568856 0.0211032
0.0813306 0.0602274 0.0216983
0.0960098 0.0631418 0.0212558
0.114534 0.0657359 0.0208286
0.138598 0.0677501 0.0204013
0.16907 0.0683604 0.0180667
0.207965 0.0673991 0.0142824
0.256962 0.0646677 0.00849927
0.314229 0.0603037 0.000839246
0.378408 0.0541695 0
0.447501 0.0479591 0
0.514702 0.043061 0
0.577768 0.0395666 0
0.635508 0.0383001 0
0.68806 0.0395666 0
0.734844 0.0428473 0
0.776394 0.0485542 0
0.814206 0.0565194 0
0.84802 0.066041 0
0.879454 0.0773785 0
0.909545 0.0907912 0.00433356
0.938018 0.105608 0.0174105
0.96434 0.121157 0.0308537
0.990448 0.139055 0.0466468
1 0.158495 0.0634012
1 0.179049 0.0802777
1 0.20061 0.0978866
0.00550851 0.0390021 0.0110933
0.00953689 0.0438087 0.012314
0.0142977 0.0489815 0.0140993
0.0239109 0.0552224 0.0175631
0.0387884 0.0610056 0.020737
0.0541848 0.0659342 0.0229496
0.069337 0.0700694 0.0243992
0.087068 0.0739605 0.0258793
0.105074 0.0776684 0.0260929
0.123552 0.0806744 0.0250858
0.147234 0.0829786 0.0237736
0.178256 0.0843977 0.0215152
0.218463 0.0841993 0.0179141
0.26775 0.082002 0.0120851
0.326604 0.0781567 0.00433356
0.392889 0.073106 0
0.462791 0.0677348 0
0.531243 0.0636149 0
0.595331 0.0617685 0
0.653727 0.061799 0
0.706142 0.0644388 0
0.753491 0.0699626 0
0.795361 0.0776226 0
0.832792 0.0868696 0
0.86743 0.098909 0
0.89958 0.112871 0.00657664
0.929366 0.127962 0.0186465
0.957305 0.144686 0.0321355
0.984802 0.163653 0.0475166
1 0.18349 0.0635691
1 0.20473 0.0803235
1 0.227329 0.0975509
1 0.251316 0.115618
0.00587472 0.0489204 0.0121309
0.0100404 0.0546578 0.0135042
0.0142824 0.0602274 0.0150454
0.0221408 0.0667735 0.0180819
0.0369421 0.0738689 0.0222782
0.0540627 0.0797589 0.0251011
0.0713817 0.0850538 0.027451
0.0894179 0.0897688 0.0291447
0.11133 0.0937972 0.0299687
0.134966 0.0975052 0.0299535
0.159686 0.100633 0.0282444
0.190311 0.102495 0.0252842
0.230732 0.102785 0.0211337
0.281178 0.101503 0.0155947
0.339666 0.0985885 0.00814832
0.40679 0.0943313 0
0.477256 0.0905776 0
0.546426 0.0879377 0
0.610513 0.0868238 0
0.669688 0.0888991 0
0.723125 0.0936294 0
0.769955 0.100649 0
0.811673 0.110048 0
0.849973 0.122408 0
0.884718 0.136233 0.007187
0.916793 0.152178 0.0188907
0.947112 0.169726 0.0321508
0.975494 0.18912 0.0466011
1 0.209766 0.0618906
1 0.232151 0.0784924
1 0.255207 0.0949111
1 0.279438 0.112505
1 0.304677 0.130816
0.00611887 0.0606241 0.0128634
0.00981155 0.0670176 0.0136263
0.0138399 0.073579 0.0150454
0.0203708 0.0806897 0.0179446
0.0340581 0.0882734 0.0223087
0.05243 0.0956283 0.0266117
0.0718853 0.101808 0.0296178
0.0913252 0.107362 0.0314946
0.11371 0.112734 0.0330816
0.142275 0.116899 0.0336614
0.173587 0.120272 0.0323033
0.206867 0.122713 0.0290532
0.247135 0.12372 0.0243839
0.296696 0.123201 0.0181582
0.355886 0.121553 0.0112154
0.422293 0.119081 0.00364691
0.492256 0.11632 0
0.560342 0.115129 0
0.625437 0.116396 0
0.684184 0.120043 0
0.737377 0.126436 0
0.784726 0.135775 0
0.826642 0.147555 0
0.864652 0.161593 0.00704967
0.899657 0.178408 0.0180667
0.931914 0.196353 0.0300298
0.962158 0.2159 0.0437629
0.990982 0.237613 0.0586252
1 0.26067 0.0748608
1 0.283879 0.0907607
1 0.308675 0.107347
1 0.334417 0.125002
1 0.360464 0.142794
0.00547799 0.0739147 0.0125734
0.00920119 0.0816052 0.0134585
0.0128481 0.089128 0.0142824
0.0183413 0.0969253 0.0166171
0.0302129 0.105348 0.0210727
0.049073 0.113313 0.026215
0.0707561 0.120943 0.0308995
0.092607 0.127474 0.0335393
0.115389 0.133776 0.0350805
0.144305 0.139406 0.0363165
0.181689 0.14316 0.0354314
0.22446 0.145388 0.0324254
0.268345 0.147265 0.0278019
0.317922 0.14818 0.0213779
0.375631 0.147539 0.0139773
0.440299 0.146517 0.00657664
0.508598 0.145739 0
0.57583 0.146502 0
0.639124 0.149493 0
0.698009 0.155612 0
0.750423 0.164355 0
0.797009 0.175265 0
0.839277 0.189609 0.00636301
0.877882 0.206348 0.0165866
0.912215 0.224628 0.0270695
0.944305 0.244724 0.0395514
0.975143 0.266987 0.0538643
1 0.290257 0.0686809
1 0.314275 0.0845808
1 0.338781 0.100786
1 0.36463 0.117525
1 0.390631 0.134157
1 0.416663 0.150317
0.00407416 0.0892348 0.0110475
0.00750744 0.0981155 0.0116426
0.0108797 0.107073 0.0121157
0.0156863 0.115831 0.0136873
0.0254215 0.124987 0.0178225
0.0439918 0.134112 0.0242618
0.0673075 0.142199 0.0298619
0.0922255 0.150179 0.0342565
0.117067 0.157885 0.0368658
0.14548 0.164202 0.0375067
0.183261 0.169711 0.0372625
0.233875 0.172961 0.0353246
0.288991 0.174228 0.0303349
0.342977 0.175692 0.0239109
0.400549 0.17673 0.0166781
0.462684 0.177569 0.00910964
0.527367 0.178973 0.00254826
0.592279 0.1823 0
0.654658 0.187747 0
0.710964 0.195514 0
0.762402 0.20618 0
0.808408 0.220554 0.00527962
0.849973 0.236759 0.0132753
0.887755 0.255299 0.023209
0.922347 0.275578 0.0344701
0.954955 0.297734 0.0477302
0.985229 0.321004 0.061677
1 0.345571 0.0763867
1 0.370199 0.0913558
1 0.395819 0.107134
1 0.421439 0.122881
1 0.44715 0.138674
1 0.472419 0.153094
0.00157168 0.106981 0.0080415
0.00474556 0.117281 0.00833143
0.00759899 0.127275 0.00814832
0.0120699 0.137652 0.0093843
0.0200809 0.147951 0.0128176
0.0367285 0.1579 0.0193179
0.0620432 0.167224 0.0271305
0.0902113 0.17583 0.033341
0.117128 0.184573 0.03682
0.147082 0.192905 0.0386511
0.184375 0.199725 0.0381323
0.234638 0.20441 0.0361639
0.298528 0.20679 0.031754
0.365225 0.208148 0.0258946
0.427802 0.209979 0.0187686
0.489418 0.213046 0.0118715
0.550668 0.217288 0.00627146
0.611048 0.222766 0.00196841
0.669795 0.230579 0
0.724544 0.240833 0.000961318
0.774151 0.254032 0.00486763
0.818692 0.269871 0.010605
0.859464 0.288563 0.019028
0.896361 0.308568 0.0289311
0.930312 0.33048 0.0401617
0.962646 0.353719 0.0532998
0.992889 0.378103 0.0673533
1 0.402548 0.0809033
1 0.427588 0.0953994
1 0.453086 0.109545
1 0.478538 0.124483
1 0.503471 0.138643
1 0.527214 0.150973
0 0.127092 0.00363165
0.000335698 0.139025 0.00311284
0.00311284 0.150835 0.00282292
0.00680552 0.162295 0.00294499
0.0137484 0.174014 0.00560006
0.0284123 0.185824 0.0122072
0.0543374 0.195544 0.0210727
0.0860914 0.205432 0.0300603
0.115648 0.215167 0.0348363
0.146944 0.224781 0.0374762
0.185321 0.233722 0.0380713
0.234989 0.239933 0.0360571
0.298528 0.244038 0.031632
0.375631 0.246632 0.026566
0.451026 0.249393 0.0204013
0.515877 0.253147 0.013489
0.575982 0.25951 0.00865187
0.633158 0.268055 0.00553903
0.687007 0.278523 0.00395209
0.738369 0.291081 0.0049897
0.785916 0.306569 0.00924697
0.828809 0.324666 0.01561
0.867781 0.343679 0.0233768
0.903456 0.365362 0.0332189
0.937133 0.388388 0.0446632
0.968353 0.412314 0.0571298
0.997162 0.436713 0.0695506
1 0.460548 0.0822614
1 0.485344 0.095964
1 0.510124 0.10901
1 0.534051 0.121965
1 0.557427 0.133394
1 0.581369 0.144167
0 0.150042 0
0 0.163897 0
0 0.177554 0
0 0.190738 0
0.00590524 0.204028 0
0.0187228 0.217151 0.00230411
0.045243 0.228641 0.0129244
0.0794995 0.238453 0.0236362
0.112261 0.250019 0.0305943
0.145312 0.261738 0.0346532
0.184207 0.271382 0.0352636
0.234882 0.27982 0.0344701
0.298939 0.286412 0.0311131
0.375387 0.290532 0.0260929
0.460319 0.293828 0.0198978
0.537469 0.300023 0.0152743
0.601129 0.308202 0.0115816
0.656931 0.318502 0.00895705
0.707591 0.331472 0.00842298
0.754757 0.346548 0.0103456
0.798306 0.363424 0.0136568
0.838254 0.382116 0.0192111
0.875868 0.402777 0.0273747
0.910445 0.424979 0.0368811
0.942351 0.447913 0.0474708
0.972168 0.471214 0.0588083
0.998932 0.494636 0.0697032
1 0.518486 0.0818036
1 0.541894 0.0934768
1 0.565393 0.104128
1 0.588327 0.114229
1 0.611093 0.123323
1 0.633021 0.131701
0 0.175937 0
0 0.192233 0
0 0.207843 0
0 0.222766 0
0 0.238178 0
0.0078584 0.252872 0
0.0338293 0.265766 0.00154116
0.0720989 0.276921 0.0157015
0.107515 0.289342 0.0249027
0.142367 0.302602 0.0296635
0.182971 0.314626 0.0320897
0.23415 0.324681 0.0318608
0.298451 0.332662 0.0287785
0.375235 0.339071 0.0248875
0.460258 0.344671 0.01944
0.54638 0.351522 0.0157931
0.62031 0.361715 0.0142672
0.678843 0.374151 0.012726
0.728267 0.388266 0.0127871
0.772168 0.404593 0.0147097
0.811963 0.422995 0.0183413
0.849561 0.442679 0.0242771
0.884459 0.463447 0.0315099
0.916472 0.4851 0.0395056
0.946777 0.507332 0.0491493
0.974258 0.529488 0.0588083
0.999542 0.552102 0.0683909
1 0.574441 0.0780957
1 0.597223 0.08748
1 0.619532 0.0957809
1 0.640421 0.103258
1 0.661936 0.110521
1 0.682628 0.117678
0 0.205859 0
0 0.22385 0
0 0.242267 0
0 0.259129 0
0 0.275776 0
0 0.293111 0
0.0212558 0.30808 0
0.0631266 0.31957 0.00517281
0.101946 0.333822 0.0177157
0.138994 0.348028 0.0243534
0.181308 0.361608 0.0279088
0.234226 0.373922 0.0288548
0.298634 0.383963 0.0267185
0.374701 0.391608 0.0229648
0.460212 0.399191 0.0187991
0.546685 0.408118 0.0162356
0.627894 0.418341 0.0153353
0.695048 0.432258 0.0160525
0.747372 0.448432 0.0183719
0.790585 0.465812 0.0211948
0.827482 0.484413 0.0245823
0.861509 0.50367 0.0294652
0.89337 0.523781 0.0356146
0.922789 0.544152 0.0421607
0.950164 0.565133 0.0496376
0.974701 0.586328 0.0568551
0.997238 0.608042 0.0643015
1 0.629374 0.0716564
1 0.650004 0.0782788
1 0.669932 0.0849012
1 0.690028 0.092134
1 0.709178 0.0979934
1 0.727626 0.103975
0 0.238895 0
0 0.260212 0
0 0.280095 0
0 0.299016 0
0 0.318441 0
0 0.337209 0
0.00932326 0.354543 0
0.054139 0.367651 0
0.0953384 0.381903 0.00885023
0.135332 0.398322 0.0184939
0.180438 0.41387 0.024445
0.234485 0.426688 0.0258488
0.300298 0.437949 0.024979
0.377935 0.447898 0.0227207
0.462333 0.456855 0.0189822
0.547845 0.466514 0.0167391
0.629221 0.477699 0.0163119
0.702998 0.49218 0.0190585
0.761822 0.508598 0.0235599
0.806378 0.526253 0.0272526
0.842481 0.544182 0.0309453
0.874037 0.563226 0.0350347
0.901671 0.582513 0.0388037
0.927199 0.601892 0.043122
0.951705 0.621759 0.0485237
0.973602 0.641794 0.0536965
0.993622 0.661082 0.0590066
1 0.680034 0.0643168
1 0.699153 0.0698253
1 0.717449 0.0756542
1 0.734997 0.0814984
1 0.752514 0.0873426
1 0.768856 0.0930953
0 0.276234 0
0 0.300008 0
0 0.322606 0
0 0.343359 0
0 0.364202 0
0 0.385641 0
0 0.404578 0
0.0454719 0.418631 0
0.0904707 0.435126 0.00238041
0.132708 0.452247 0.0137484
0.180087 0.468605 0.0211032
0.236957 0.482948 0.0246433
0.305379 0.495369 0.024979
0.383612 0.50573 0.0236362
0.468193 0.515511 0.0210269
0.552224 0.525277 0.0191348
0.632609 0.537072 0.0192874
0.705074 0.550958 0.0213016
0.767529 0.566705 0.0257572
0.816129 0.584894 0.0308232
0.853468 0.602869 0.0351263
0.883375 0.620813 0.0383459
0.908919 0.639292 0.0410468
0.931838 0.657511 0.0439002
0.952636 0.675166 0.0469673
0.971893 0.692851 0.0500954
0.99057 0.710277 0.0544289
1 0.727275 0.0590677
1 0.743862 0.0635233
1 0.760372 0.068864
1 0.776287 0.0743877
1 0.790936 0.0795148
1 0.80531 0.0857252
0 0.317754 0
0 0.343679 0
0 0.36849 0
0 0.391531 0
0 0.413489 0
0 0.436133 0
0 0.457877 0
0.0396582 0.47303 0
0.0866255 0.489464 0
0.132372 0.508232 0.0120089
0.182742 0.525261 0.0209964
0.242634 0.540627 0.0254978
0.313024 0.553643 0.0275578
0.392493 0.56466 0.0269474
0.47602 0.573922 0.0238804
0.558648 0.583993 0.0223392
0.636255 0.595529 0.0215457
0.706767 0.608713 0.0230411
0.76733 0.623453 0.026215
0.81825 0.64033 0.030808
0.858518 0.658183 0.0360723
0.889448 0.675547 0.0396429
0.913939 0.691478 0.0419013
0.935729 0.707759 0.0443275
0.955367 0.724041 0.0469978
0.972854 0.739788 0.0493019
0.989456 0.75491 0.0522011
1 0.770184 0.0558938
1 0.784817 0.0607919
1 0.798596 0.0659495
1 0.811978 0.0708476
1 0.825391 0.0768749
1 0.838071 0.0825666
0 0.362127 0
0 0.391104 0
0 0.417639 0
0 0.441627 0
0 0.465415 0
0 0.489799 0
0 0.51104 0
0.0368658 0.527642 0
0.0859998 0.545876 0
0.133562 0.564981 0.012665
0.18732 0.583307 0.0232853
0.250477 0.599329 0.0285801
0.322683 0.612512 0.030869
0.401679 0.622477 0.0295262
0.484092 0.632013 0.0267643
0.565499 0.641688 0.024918
0.640681 0.652369 0.0235294
0.707835 0.663401 0.0235904
0.766796 0.67718 0.0263218
0.816876 0.692531 0.0304875
0.858915 0.707897 0.0355535
0.89221 0.723842 0.040177
0.918929 0.739513 0.0440681
0.940322 0.754025 0.0465248
0.95906 0.768032 0.0484627
0.97644 0.781888 0.0514839
0.992706 0.795209 0.0545815
1 0.80795 0.0576486
1 0.820157 0.0614786
1 0.832578 0.0665141
1 0.844541 0.0712139
1 0.855924 0.0763256
1 0.867399 0.0815747
0 0.410651 0
0 0.44065 0
0 0.468772 0
0 0.494682 0
0 0.518822 0
0 0.542794 0
0 0.565728 0
0.0369726 0.583978 0
0.0862135 0.603403 0.000488289
0.135836 0.623529 0.0156558
0.192706 0.642359 0.0261997
0.257847 0.658 0.0315709
0.331533 0.66949 0.0332189
0.412207 0.679408 0.0325628
0.494484 0.687922 0.0305333
0.573068 0.696071 0.0281987
0.645609 0.704723 0.0258793
0.711681 0.715236 0.0261082
0.767865 0.726894 0.0276951
0.816236 0.739773 0.0311742
0.857939 0.753399 0.0360418
0.893538 0.767559 0.0414893
0.92253 0.781186 0.0465553
0.946197 0.794476 0.0510567
0.96556 0.806943 0.0538949
0.982437 0.818418 0.0564889
0.998383 0.829862 0.0595712
1 0.841398 0.0625315
1 0.852323 0.0657816
1 0.862898 0.0694743
1 0.873686 0.0734722
1 0.884016 0.0778973
1 0.893828 0.0820783
0 0.460761 0
0 0.492622 0
0 0.522011 0
0 0.547539 0
0 0.572671 0
0 0.597147 0
0 0.621653 0
0.038056 0.641352 0
0.0870527 0.661433 0.00497444
0.139132 0.681865 0.0202182
0.199359 0.699657 0.0305638
0.26688 0.71371 0.0356756
0.342824 0.724865 0.0380407
0.423743 0.732952 0.0371252
0.505867 0.739467 0.0350805
0.583261 0.745953 0.0329137
0.654322 0.753338 0.0310674
0.717159 0.7617 0.0304723
0.771878 0.771908 0.032105
0.818586 0.782544 0.0347448
0.859144 0.793713 0.0390478
0.895109 0.80589 0.0447852
0.926711 0.817975 0.0514229
0.951858 0.829114 0.0563516
0.972656 0.840482 0.0607309
0.990066 0.851347 0.0640116
1 0.861463 0.0664225
1 0.871244 0.068925
1 0.881102 0.0716564
1 0.890684 0.0745251
1 0.899763 0.0772564
1 0.908782 0.0803998
1 0.917922 0.0839246
0 0.513237 0
0 0.545403 0
0 0.575402 0
0 0.602182 0
0 0.627344 0
0 0.653223 0
0 0.678721 0
0.0406043 0.699168 0
0.0898909 0.718837 0.0124208
0.144137 0.738018 0.0272221
0.208545 0.754437 0.037644
0.278813 0.766445 0.042771
0.356527 0.775265 0.0449531
0.438453 0.781964 0.0442206
0.519509 0.78677 0.0423896
0.595895 0.790936 0.0397803
0.665736 0.796689 0.0384833
0.727245 0.803525 0.0386206
0.779263 0.811139 0.0393378
0.824674 0.819974 0.0419928
0.86453 0.829877 0.046128
0.898817 0.839887 0.0504921
0.929274 0.849851 0.0557717
0.956481 0.860471 0.0619974
0.978683 0.87039 0.067277
0.996948 0.879942 0.0711223
1 0.889204 0.0737163
1 0.898131 0.0761273
1 0.906615 0.0780957
1 0.915145 0.0801709
1 0.923537 0.0826429
1 0.931579 0.0849317
1 0.939406 0.0871443
0 0.566094 0
0 0.599802 0
0 0.630198 0
0 0.657115 0
0 0.683635 0
0 0.709895 0
0.00030518 0.734813 0
0.045716 0.754665 0.00547799
0.0959945 0.773678 0.0237888
0.153216 0.791333 0.0380713
0.21973 0.804181 0.0472725
0.293767 0.81442 0.0535592
0.374258 0.821149 0.0560922
0.456458 0.824918 0.055024
0.53669 0.827802 0.0527962
0.612192 0.831235 0.0508278
0.679805 0.834943 0.0486152
0.738689 0.839765 0.0479591
0.78938 0.846342 0.0489052
0.833066 0.853651 0.0510567
0.870924 0.861646 0.0539406
0.904036 0.870237 0.0575875
0.933562 0.879072 0.0621958
0.959564 0.887953 0.0669871
0.982879 0.897017 0.0727092
1 0.905562 0.0774701
1 0.913893 0.0807355
1 0.922118 0.0834211
1 0.930022 0.0855268
1 0.93756 0.0869306
1 0.944869 0.0887007
1 0.952224 0.0904402
1 0.959091 0.0918898
0 0.620874 0
0 0.655329 0
0 0.685664 0
0 0.713191 0
0 0.739193 0
0 0.76463 0
0.0108034 0.788067 0.00320439
0.0552682 0.806775 0.0229953
0.107317 0.823941 0.0405432
0.167163 0.838712 0.053666
0.236042 0.849561 0.0621958
0.311391 0.857435 0.0674144
0.392355 0.861738 0.0688487
0.474952 0.863859 0.0673381
0.555138 0.864988 0.0648203
0.628702 0.866438 0.061738
0.694575 0.868955 0.0597086
0.751202 0.872709 0.0586404
0.799725 0.877623 0.0586099
0.841779 0.883925 0.0603494
0.878248 0.890837 0.0626841
0.909804 0.897612 0.0652628
0.938338 0.905272 0.0691386
0.963455 0.913207 0.0733196
0.985534 0.920623 0.07776
1 0.928527 0.0826886
1 0.936294 0.0872663
1 0.943542 0.0903944
1 0.950561 0.0925002
1 0.957519 0.0940108
1 0.964202 0.095201
1 0.970657 0.0961471
1 0.976562 0.0968948
0 0.676478 0
0 0.710887 0
0 0.741131 0
0 0.76759 0
0 0.792218 0
0 0.816068 0.00854505
0.0261082 0.83801 0.0268559
0.0689403 0.854459 0.0445106
0.122194 0.869856 0.0603494
0.183963 0.882292 0.0717479
0.253071 0.890501 0.0780804
0.329625 0.8963 0.0822003
0.411078 0.898558 0.0822614
0.493126 0.898512 0.0795911
0.572396 0.898466 0.0766155
0.645472 0.898619 0.0733349
0.708995 0.899245 0.0704204
0.764019 0.902037 0.0693065
0.810559 0.906294 0.0691997
0.850721 0.911025 0.0698863
0.885206 0.916457 0.0711223
0.916182 0.922744 0.0736248
0.94342 0.92903 0.0765393
0.967376 0.935531 0.0797284
0.989029 0.942382 0.0836957
1 0.949157 0.087953
1 0.956024 0.0924849
1 0.962692 0.096437
1 0.969207 0.0993668
1 0.975387 0.101183
1 0.981552 0.102342
1 0.987396 0.102968
1 0.992523 0.103014
0 0.731075 0
0 0.76347 0
0 0.791959 0
0 0.81709 0.00250248
0 0.840299 0.0183871
0.0156863 0.861952 0.0343328
0.0441138 0.882139 0.0514534
0.0863508 0.898451 0.0679942
0.138918 0.911467 0.0805982
