web/luts/Kodak_2383_33pt_1.test_photo_04.cube
TITLE "Generated by Resolve"
LUT_3D_SIZE 9
0 0 0
0.0225071 0.00396735 0.00402838
0.0616617 0.00709544 0.00613413
0.137774 0.00453193 0.000991836
0.312123 0 0
0.551583 0 0
0.723629 0 0
0.835126 0 0
0.920424 0 0
0.0031281 0.0159457 0.00634775
0.0363012 0.0303807 0.0125734
0.0840009 0.0393225 0.0142061
0.188785 0.0398718 0.00825513
0.409262 0.0172122 0
0.645716 0 0
0.805417 0.0120699 0
0.919814 0.0507973 0
1 0.111543 0.0573892
0.00587472 0.0489204 0.0121309
0.0369421 0.0738689 0.0222782
0.11133 0.0937972 0.0299687
0.230732 0.102785 0.0211337
0.477256 0.0905776 0
0.723125 0.0936294 0
0.884718 0.136233 0.007187
1 0.209766 0.0618906
1 0.304677 0.130816
0.00157168 0.106981 0.0080415
0.0200809 0.147951 0.0128176
0.117128 0.184573 0.03682
0.298528 0.20679 0.031754
0.550668 0.217288 0.00627146
0.774151 0.254032 0.00486763
0.930312 0.33048 0.0401617
1 0.427588 0.0953994
1 0.527214 0.150973
0 0.205859 0
0 0.275776 0
0.101946 0.333822 0.0177157
0.298634 0.383963 0.0267185
0.627894 0.418341 0.0153353
0.827482 0.484413 0.0245823
0.950164 0.565133 0.0496376
1 0.650004 0.0782788
1 0.727626 0.103975
0 0.362127 0
0 0.465415 0
0.0859998 0.545876 0
0.322683 0.612512 0.030869
0.640681 0.652369 0.0235294
0.858915 0.707897 0.0355535
0.95906 0.768032 0.0484627
1 0.820157 0.0614786
1 0.867399 0.0815747
0 0.566094 0
0 0.683635 0
0.0959945 0.773678 0.0237888
0.374258 0.821149 0.0560922
0.679805 0.834943 0.0486152
0.870924 0.861646 0.0539406
0.982879 0.897017 0.0727092
1 0.930022 0.0855268
1 0.959091 0.0918898
0 0.784405 0
0.012314 0.885679 0.0454719
0.155352 0.949905 0.100542
0.44445 0.961929 0.108019
0.736141 0.951858 0.0913558
0.900465 0.961288 0.0893416
0.996078 0.979873 0.0964218
1 1 0.109804
1 1 0.115892
0.0209659 0.963836 0.0964065
0.0761273 1 0.147982
0.215091 1 0.169375
0.495766 1 0.15288
0.781353 1 0.126955
0.928466 1 0.12282
1 1 0.124071
1 1 0.129839
1 1 0.138521
0 0.00105287 0.0215152
0.0223392 0.00561532 0.032639
0.0653086 0.00941482 0.0403601
0.149294 0.00643931 0.0414588
0.33434 0 0.0162509
0.571252 0 0
0.73817 0 0
0.848554 0 0.00782788
0.936187 0.000579843 0.0586709
0.000946059 0.0179904 0.0273899
0.0323186 0.0343481 0.04448
0.080293 0.0457923 0.0559396
0.176211 0.0502174 0.0585336
0.379828 0.033753 0.0368353
0.624765 0.0158236 0.0126802
0.798535 0.0284276 0.0263523
0.921614 0.0695201 0.0732586
1 0.1346 0.142702
0.00663767 0.0544747 0.045716
0.0240635 0.0787213 0.0597848
0.107881 0.105043 0.0707866
0.22948 0.117998 0.067216
0.481361 0.109499 0.0476234
0.727718 0.117189 0.0449989
0.891752 0.164782 0.0830396
1 0.242695 0.145174
1 0.338796 0.219959
0.00273136 0.118471 0.051133
0.015671 0.161746 0.0571908
0.105562 0.202396 0.079408
0.286748 0.232044 0.083711
0.538506 0.248188 0.0590829
0.782666 0.289448 0.0652781
0.944549 0.370382 0.110979
1 0.467002 0.170993
1 0.561822 0.229053
0 0.226658 0.0285801
0 0.30071 0.0253758
0.0779126 0.366018 0.0554818
0.291615 0.419516 0.0863203
0.619471 0.458335 0.0781872
0.823026 0.52134 0.0827649
0.952193 0.600931 0.107637
1 0.681224 0.138582
1 0.753323 0.167681
0 0.39527 0
0 0.499413 0.00311284
0.0643015 0.582956 0.0505226
0.315892 0.651087 0.0954757
0.631952 0.687648 0.0919203
0.853376 0.736568 0.0999466
0.954833 0.789929 0.108278
1 0.838163 0.121035
1 0.881621 0.143038
0 0.6056 0.00508125
0 0.720409 0.0511482
0.0801251 0.807568 0.0971237
0.357855 0.849699 0.127047
0.67512 0.857389 0.126162
0.867399 0.878782 0.128206
0.979919 0.909194 0.144594
1 0.938933 0.151858
1 0.966323 0.155062
0 0.821775 0.0962844
0.0253758 0.913588 0.159274
0.139956 0.973495 0.187442
0.413642 0.983856 0.184649
0.726513 0.966079 0.171618
0.895811 0.970764 0.171191
0.99147 0.986114 0.175692
1 1 0.189105
1 1 0.191257
0.0347448 0.988052 0.223636
0.0831617 1 0.268986
0.195743 1 0.267048
0.457343 1 0.237919
0.763851 1 0.210437
0.921523 1 0.212161
1 1 0.214481
1 1 0.218753
1 1 0.228885
0 0.000610361 0.0664683
0.00965896 0.00474556 0.0979171
0.06981 0.00953689 0.0954299
0.164065 0.00646983 0.0990616
0.358144 0 0.0843977
0.592981 0 0.0694743
0.755734 0 0.0902113
0.865034 0 0.137606
0.954421 0.0156405 0.20795
0 0.0190127 0.0696727
0.0155184 0.033402 0.105913
0.0836652 0.0484932 0.119142
0.19028 0.0545357 0.131075
0.405829 0.0375067 0.123354
0.647974 0.0242313 0.115434
0.817868 0.0430304 0.146319
0.940063 0.0899367 0.210986
1 0.160525 0.2981
0.000381476 0.055024 0.081651
0.0205081 0.0843977 0.116548
0.0993973 0.113863 0.138903
0.220325 0.132509 0.155261
0.456321 0.131304 0.151034
0.710475 0.141176 0.157809
0.885252 0.190845 0.203494
1 0.270405 0.276127
1 0.366232 0.360708
0 0.121141 0.0970932
0.0142977 0.175601 0.135378
0.0774395 0.220188 0.153475
0.272862 0.256626 0.167163
0.536889 0.278569 0.152361
0.790967 0.325063 0.174441
0.951064 0.407248 0.233722
1 0.500145 0.302754
1 0.588342 0.366339
0 0.242176 0.0998398
0 0.325185 0.130205
0.0585336 0.397116 0.153628
0.283619 0.454826 0.180285
0.607187 0.495598 0.178439
0.818494 0.556497 0.178943
0.952682 0.632715 0.210163
1 0.706661 0.249912
1 0.771252 0.292271
0 0.421881 0.0915389
0 0.530938 0.145113
0.0537423 0.61883 0.178637
0.292653 0.686519 0.194949
0.620722 0.718624 0.202777
0.844633 0.75935 0.207401
0.947448 0.807187 0.208484
1 0.850935 0.225528
1 0.890776 0.257786
0 0.638758 0.151217
0 0.753491 0.223392
0.0767834 0.834989 0.252323
0.324117 0.875593 0.24741
0.663478 0.875334 0.248966
0.859693 0.890578 0.251164
0.972381 0.916411 0.265614
1 0.943923 0.265171
1 0.969436 0.26717
0 0.849073 0.273991
0.0338293 0.93434 0.355428
0.135088 0.989487 0.360632
0.373053 1 0.323461
0.703029 0.976852 0.298817
0.886275 0.975067 0.308583
0.982177 0.987778 0.312062
1 1 0.325963
1 1 0.321752
0.0415045 1 0.419318
0.084596 1 0.481697
0.185672 1 0.457923
0.413413 1 0.398215
0.729534 1 0.34876
0.908766 1 0.360678
0.994354 1 0.369985
1 1 0.372702
1 1 0.385473
0 0 0.149874
0.000854505 0.000640879 0.206714
0.0511177 0.00425727 0.234302
0.190921 0 0.199908
0.393561 0 0.191836
0.613336 0 0.196628
0.766125 0 0.240955
0.873182 0 0.319585
0.966018 0.0266423 0.429618
0 0.0168154 0.150973
0.00798047 0.0315709 0.217899
0.0555428 0.0454108 0.2701
0.220096 0.0502174 0.241108
0.435477 0.0379797 0.243854
0.668833 0.0294499 0.266056
0.834546 0.0536355 0.332723
0.957137 0.107317 0.432715
1 0.184543 0.544854
0 0.0562448 0.157549
0.0137942 0.0868544 0.219455
0.0586099 0.116533 0.275593
0.246372 0.136538 0.281193
0.483375 0.141176 0.299397
0.733486 0.157259 0.341711
0.902754 0.214511 0.411978
1 0.298482 0.502312
1 0.393225 0.601694
0 0.123262 0.167391
0.00402838 0.1823 0.226368
0.0566415 0.236194 0.273091
0.257206 0.278843 0.306676
0.521645 0.307378 0.328084
0.774868 0.355123 0.36791
0.936736 0.434409 0.437034
1 0.520989 0.514641
1 0.603815 0.583902
0 0.239796 0.178241
0 0.341787 0.252674
0.0576638 0.423087 0.322896
0.256321 0.487068 0.346777
0.589929 0.528237 0.343725
0.812909 0.585245 0.350057
0.947372 0.655161 0.403891
1 0.72163 0.462104
1 0.778881 0.520928
0 0.433341 0.212222
0 0.554681 0.324926
0.0611276 0.647501 0.391272
0.261295 0.715877 0.39646
0.60325 0.741711 0.381918
0.830274 0.774655 0.386801
0.936263 0.817166 0.382544
1 0.856733 0.417441
1 0.891768 0.469291
0 0.658824 0.323919
0 0.776638 0.444862
0.0870069 0.8542 0.491722
0.298039 0.892485 0.478691
0.629633 0.887785 0.43389
0.845914 0.895186 0.45066
0.959014 0.917281 0.46244
1 0.942245 0.452613
1 0.965438 0.463722
0 0.864744 0.486229
0.0378729 0.946593 0.594736
0.138827 0.996719 0.611368
0.34551 1 0.572763
0.656809 0.984649 0.502586
0.869291 0.973281 0.514488
0.966705 0.982528 0.524285
1 0.996063 0.536339
1 1 0.525032
0.0426795 1 0.64625
0.0841382 1 0.720851
0.182422 1 0.713344
0.384421 1 0.659144
0.679911 1 0.574823
0.886427 1 0.564004
0.977661 1 0.588708
1 1 0.591974
1 1 0.603693
0 0 0.301503
0 0 0.388403
0.0216526 0 0.470146
0.188495 0 0.428931
0.438743 0 0.378119
0.637797 0 0.393408
0.778134 0 0.447822
0.88304 0 0.531319
0.978561 0.0392004 0.640177
0 0.0111543 0.302724
0 0.0240635 0.405524
0.0293126 0.0399939 0.487755
0.213886 0.0384375 0.489769
0.484886 0.0271611 0.441917
0.695186 0.0314031 0.471275
0.850858 0.0639506 0.547356
0.971679 0.12459 0.649256
1 0.208301 0.764477
0 0.0534218 0.298009
0.00248722 0.0834974 0.403449
0.0370031 0.116838 0.490745
0.219547 0.137804 0.529183
0.533028 0.143297 0.506569
0.757656 0.172168 0.553124
0.919829 0.236851 0.64239
1 0.32549 0.745281
1 0.420661 0.844678
0 0.124987 0.299565
0 0.186145 0.392874
0.0297246 0.247501 0.468376
0.212604 0.298497 0.531945
0.561151 0.326345 0.55227
0.793545 0.380148 0.610956
0.947997 0.460456 0.694301
1 0.543923 0.76347
1 0.621851 0.817395
0 0.243137 0.3093
0 0.350576 0.408469
0.0110933 0.442679 0.48777
0.22121 0.512352 0.546746
0.564813 0.55494 0.575509
0.795178 0.606653 0.615503
0.925231 0.669764 0.663691
1 0.729686 0.709987
1 0.782589 0.752392
0 0.428916 0.343526
0 0.568383 0.484794
0.0376593 0.669841 0.574014
0.258976 0.736431 0.627726
0.562554 0.76022 0.620035
0.811292 0.784802 0.614679
0.92369 0.8215 0.625452
0.99646 0.856443 0.673198
1 0.888319 0.72221
0 0.659892 0.471962
0 0.792432 0.616403
0.0837873 0.869398 0.696147
0.304128 0.901106 0.720012
0.587854 0.8981 0.686381
0.828824 0.897032 0.668544
0.942626 0.915328 0.678523
1 0.937606 0.672984
1 0.958114 0.69868
0 0.872541 0.647272
0.0386206 0.957061 0.766262
0.139361 1 0.810666
0.348608 1 0.80235
0.618875 0.988022 0.752544
0.845289 0.972168 0.710094
0.951675 0.97731 0.727779
1 0.989136 0.735363
1 1 0.726314
0.0422827 1 0.80029
0.0840467 1 0.882292
0.184115 1 0.896437
0.385138 1 0.869795
0.645685 1 0.810468
0.857557 1 0.75613
0.963439 1 0.769146
1 1 0.775082
1 1 0.781888
0 0 0.519768
0 0 0.602243
0 0 0.683299
0.153567 0 0.677073
0.453056 0 0.624445
0.669871 0 0.599313
0.798535 0 0.639597
0.901305 0 0.7075
1 0.0590066 0.802182
0 0.00015259 0.520958
0 0.0140078 0.621088
0.0099794 0.0354314 0.696956
0.166567 0.0429236 0.722148
0.504494 0.0204471 0.689967
0.736263 0.0351568 0.677333
0.878706 0.0796826 0.735531
0.995544 0.149004 0.820661
1 0.239353 0.918303
0 0.0459449 0.510231
0 0.0774853 0.62092
0.0191501 0.118441 0.703075
0.171786 0.150515 0.74316
0.544335 0.154971 0.756161
0.802213 0.191989 0.754681
0.946471 0.265522 0.820371
1 0.356527 0.901549
1 0.449714 0.980041
0 0.122667 0.497749
0 0.187793 0.599893
0.00793469 0.258137 0.67985
0.174792 0.32076 0.749416
0.536034 0.356527 0.787518
0.832013 0.409369 0.79794
0.963912 0.489097 0.853117
1 0.569482 0.910918
1 0.644221 0.955459
0 0.248585 0.495308
0 0.362203 0.588769
0 0.461845 0.665568
0.179202 0.539666 0.741558
0.511925 0.587213 0.781399
0.817243 0.629129 0.796277
0.929808 0.689006 0.831327
1 0.745007 0.869688
1 0.794308 0.899062
0 0.438483 0.509285
0 0.58114 0.631754
0.00138857 0.690471 0.715938
0.19556 0.762203 0.771298
0.521004 0.783352 0.781384
0.796048 0.797314 0.787091
0.911559 0.829068 0.814939
0.983185 0.861082 0.845075
1 0.890806 0.874159
0 0.668864 0.608896
0 0.80441 0.736553
0.0558175 0.885695 0.819684
0.272618 0.918212 0.851057
0.586389 0.907134 0.842817
0.806256 0.903899 0.825101
0.931441 0.918349 0.827131
0.991409 0.937438 0.833707
1 0.956039 0.860227
0 0.872877 0.750774
0.0366064 0.966339 0.867872
0.120882 1 0.921889
0.338903 1 0.925505
0.624201 0.990143 0.896071
0.822339 0.97554 0.864195
0.941894 0.977493 0.857237
1 0.987274 0.86305
1 0.999252 0.86009
0.0392309 1 0.891279
0.0829175 1 0.971679
0.17464 1 0.998169
0.38584 1 0.982208
0.651499 1 0.938155
0.837598 1 0.899733
0.950378 1 0.879622
1 1 0.888869
1 1 0.892256
0 0 0.706279
0 0 0.755901
0 0 0.814237
0.116197 0 0.823606
0.440101 0 0.781476
0.692393 0 0.757122
0.830259 0 0.777432
0.932052 0.0194858 0.838392
1 0.086717 0.923537
0 0 0.709316
0 0.00906386 0.772488
0.000366217 0.0366674 0.83006
0.129351 0.0541543 0.859525
0.479286 0.0357977 0.844129
0.768811 0.049485 0.840299
0.919951 0.105943 0.877729
1 0.182635 0.948684
1 0.275837 1
0 0.0393835 0.69894
0 0.0765087 0.775555
0.00972 0.126146 0.837674
0.140795 0.168673 0.881453
0.491676 0.186862 0.901869
0.83064 0.224109 0.914839
0.98468 0.30277 0.953445
1 0.393423 1
1 0.482399 1
0 0.122972 0.682246
0 0.192737 0.754635
0 0.276783 0.817472
0.144533 0.348623 0.887739
0.472236 0.395239 0.918654
0.844663 0.445182 0.944411
0.993118 0.52253 0.970077
1 0.59855 1
1 0.668467 1
0 0.258885 0.655116
0 0.376959 0.7243
0 0.487175 0.794217
0.146456 0.572412 0.881392
0.459861 0.62417 0.911742
0.800671 0.656596 0.922103
0.947295 0.711345 0.929961
1 0.763439 0.950103
1 0.808606 0.975402
0 0.457649 0.647166
0 0.601328 0.749065
0 0.715526 0.826215
0.162829 0.789319 0.889097
0.467903 0.811017 0.899947
0.76643 0.814572 0.898848
0.923735 0.840848 0.912459
0.986954 0.87071 0.935409
1 0.898466 0.959747
0 0.685618 0.721325
0 0.817578 0.830045
0.0386511 0.901061 0.910216
0.215457 0.939834 0.946822
0.513191 0.931151 0.933135
0.785962 0.915389 0.912795
0.923827 0.92462 0.918761
0.985122 0.941299 0.934585
1 0.958312 0.951125
0 0.882368 0.839506
0.0348821 0.975555 0.94107
0.093843 1 0.997635
0.288518 1 1
0.587411 1 0.971069
0.821653 0.980346 0.947005
0.930449 0.980987 0.940063
0.995987 0.98883 0.941451
1 0.999054 0.94519
0.033753 1 0.954559
0.0803998 1 1
0.147219 1 1
0.354498 1 1
0.641306 1 1
0.841001 1 0.975982
0.938659 1 0.96112
1 1 0.957397
1 1 0.959884
0 0 0.821561
0 0 0.848402
0 0 0.894484
0.0865644 0 0.910567
0.400122 0 0.87837
0.705608 0 0.854856
0.859632 0 0.88278
0.97113 0.0463264 0.939788
1 0.121614 1
0 0 0.825742
0 0.00686656 0.862257
0 0.0425879 0.912902
0.104448 0.0682994 0.945235
0.426535 0.0633707 0.940719
0.781826 0.07393 0.94136
0.95584 0.139193 0.988296
1 0.22327 1
1 0.316945 1
0 0.0415198 0.821012
0 0.0788281 0.870054
0.00563058 0.140139 0.921401
0.117922 0.191714 0.967849
0.431815 0.224628 0.991165
0.824826 0.259525 1
1 0.344305 1
1 0.432609 1
1 0.516167 1
0 0.129595 0.801801
0 0.20119 0.851667
0 0.300832 0.900298
0.120226 0.38085 0.971847
0.423163 0.436591 1
0.815335 0.481666 1
1 0.55671 1
1 0.628717 1
1 0.69369 1
0 0.275227 0.760708
0 0.394369 0.815152
0 0.51696 0.880018
0.119982 0.609171 0.966888
0.412345 0.663981 0.994125
0.75845 0.687953 0.987747
0.949874 0.734127 1
1 0.782177 1
1 0.823896 1
0 0.483162 0.745159
0 0.623072 0.833249
0 0.743542 0.906554
0.135592 0.817655 0.974609
0.419425 0.840192 0.987152
0.737591 0.835828 0.971206
0.916823 0.853971 0.980819
0.997848 0.881621 0.989334
1 0.907576 1
0 0.710185 0.808011
0 0.834485 0.90457
0.038117 0.919005 0.979492
0.187259 0.959625 1
0.46714 0.95314 1
0.755871 0.930297 0.977447
0.909316 0.933455 0.978561
0.991745 0.947555 0.986633
1 0.963577 0.999451
0 0.896559 0.91107
0.034699 0.9841 0.997391
0.0823072 1 1
0.235492 1 1
0.509804 1 1
0.781704 0.993561 0.995727
0.919921 0.98703 0.986603
0.992126 0.992309 0.990448
1 1 0.998505
0.0307927 1 1
0.0784314 1 1
0.12459 1 1
0.299138 1 1
0.579248 1 1
0.821683 1 1
0.938323 1 1
0.995499 1 1
1 1 1
0 0 0.89192
0 0 0.909926
0 0 0.945403
0.0639963 0.00531014 0.965713
0.347051 0 0.944427
0.703197 0 0.916808
0.887434 0.0110018 0.95642
1 0.0796063 1
1 0.162661 1
0 0 0.897078
0 0.00968948 0.922957
0 0.0517586 0.965774
0.0846113 0.0849317 1
0.372595 0.0946212 1
0.771542 0.103639 1
0.980743 0.175753 1
1 0.267262 1
1 0.360983 1
0 0.0467994 0.895628
0 0.0822919 0.929213
0.00399786 0.157275 0.973877
0.0982376 0.218921 1
0.382513 0.263416 1
0.795712 0.29781 1
1 0.383459 1
1 0.472175 1
1 0.551171 1
0 0.140917 0.875654
0 0.20589 0.911681
0 0.328817 0.952605
0.0985885 0.417945 1
0.38294 0.480049 1
0.773678 0.520302 1
0.999115 0.588983 1
1 0.659007 1
1 0.719463 1
0 0.296284 0.828504
0 0.402197 0.873625
0 0.54905 0.937758
0.0963455 0.647913 1
0.368887 0.70454 1
0.719539 0.720348 1
0.929564 0.757259 1
1 0.801083 1
1 0.83946 1
0 0.511681 0.815793
0 0.643198 0.892424
0 0.772335 0.963851
0.113588 0.84686 1
0.377844 0.870283 1
0.706981 0.858442 1
0.897887 0.869398 1
1 0.893065 1
1 0.917418 1
0 0.737469 0.87303
0 0.851209 0.959945
0.0409552 0.937743 1
0.163882 0.980575 1
0.420584 0.976745 1
0.723064 0.947753 1
0.895308 0.944289 1
0.988205 0.954864 1
1 0.969558 1
0 0.91516 0.968841
0.0372168 0.993835 1
0.0835431 1 1
0.210224 1 1
0.465278 1 1
0.75198 1 1
0.905211 0.994827 1
0.984314 0.996979 1
1 1 1
0.0305333 1 1
0.0776989 1 1
0.116487 1 1
0.250294 1 1
0.504356 1 1
0.777371 1 1
0.918059 1 1
0.989914 1 1
1 1 1
