web/luts/Kodak_2383_33pt_1.test_photo_04.cube
TITLE "Generated by Resolve"
LUT_3D_SIZE 5
0 0 0
0.0616617 0.00709544 0.00613413
0.312123 0 0
0.723629 0 0
0.920424 0 0
0.00587472 0.0489204 0.0121309
0.11133 0.0937972 0.0299687
0.477256 0.0905776 0
0.884718 0.136233 0.007187
1 0.304677 0.130816
0 0.205859 0
0.101946 0.333822 0.0177157
0.627894 0.418341 0.0153353
0.950164 0.565133 0.0496376
1 0.727626 0.103975
0 0.566094 0
0.0959945 0.773678 0.0237888
0.679805 0.834943 0.0486152
0.982879 0.897017 0.0727092
1 0.959091 0.0918898
0.0209659 0.963836 0.0964065
0.215091 1 0.169375
0.781353 1 0.126955
1 1 0.124071
1 1 0.138521
0 0.000610361 0.0664683
0.06981 0.00953689 0.0954299
0.358144 0 0.0843977
0.755734 0 0.0902113
0.954421 0.0156405 0.20795
0.000381476 0.055024 0.081651
0.0993973 0.113863 0.138903
0.456321 0.131304 0.151034
0.885252 0.190845 0.203494
1 0.366232 0.360708
0 0.242176 0.0998398
0.0585336 0.397116 0.153628
0.607187 0.495598 0.178439
0.952682 0.632715 0.210163
1 0.771252 0.292271
0 0.638758 0.151217
0.0767834 0.834989 0.252323
0.663478 0.875334 0.248966
0.972381 0.916411 0.265614
1 0.969436 0.26717
0.0415045 1 0.419318
0.185672 1 0.457923
0.729534 1 0.34876
0.994354 1 0.369985
1 1 0.385473
0 0 0.301503
0.0216526 0 0.470146
0.438743 0 0.378119
0.778134 0 0.447822
0.978561 0.0392004 0.640177
0 0.0534218 0.298009
0.0370031 0.116838 0.490745
0.533028 0.143297 0.506569
0.919829 0.236851 0.64239
1 0.420661 0.844678
0 0.243137 0.3093
0.0110933 0.442679 0.48777
0.564813 0.55494 0.575509
0.925231 0.669764 0.663691
1 0.782589 0.752392
0 0.659892 0.471962
0.0837873 0.869398 0.696147
0.587854 0.8981 0.686381
0.942626 0.915328 0.678523
1 0.958114 0.69868
0.0422827 1 0.80029
0.184115 1 0.896437
0.645685 1 0.810468
0.963439 1 0.769146
1 1 0.781888
0 0 0.706279
0 0 0.814237
0.440101 0 0.781476
0.830259 0 0.777432
1 0.086717 0.923537
0 0.0393835 0.69894
0.00972 0.126146 0.837674
0.491676 0.186862 0.901869
0.98468 0.30277 0.953445
1 0.482399 1
0 0.258885 0.655116
0 0.487175 0.794217
0.459861 0.62417 0.911742
0.947295 0.711345 0.929961
1 0.808606 0.975402
0 0.685618 0.721325
0.0386511 0.901061 0.910216
0.513191 0.931151 0.933135
0.923827 0.92462 0.918761
1 0.958312 0.951125
0.033753 1 0.954559
0.147219 1 1
0.641306 1 1
0.938659 1 0.96112
1 1 0.959884
0 0 0.89192
0 0 0.945403
0.347051 0 0.944427
0.887434 0.0110018 0.95642
1 0.162661 1
0 0.0467994 0.895628
0.00399786 0.157275 0.973877
0.382513 0.263416 1
1 0.383459 1
1 0.551171 1
0 0.296284 0.828504
0 0.54905 0.937758
0.368887 0.70454 1
0.929564 0.757259 1
1 0.83946 1
0 0.737469 0.87303
0.0409552 0.937743 1
0.420584 0.976745 1
0.895308 0.944289 1
1 0.969558 1
0.0305333 1 1
0.116487 1 1
0.504356 1 1
0.918059 1 1
1 1 1
